!!!!SEGMENT: pl-wtm--r-882-m--002_moniuszko-stanislaw--powrot-z-paryza-do-sabaudii.krn
!!!cenid: 18xx:2871
!!!COM: Moniuszko, Stanisław
!!!COM-rismid: pe30008351
!!!CDT: 1819/05/05-1872/06/04
!!!CNT: Polish
!!!OTL: Powrót z Paryża do Sabaudii
!!!PDT:
!!!AGN:
!!!SMS-siglum: PL-Wtm
!!!SMS-shelfmark: R 882/M
!!!SMS-shelfwork: 002 W
!!!SMS-variant:
!!!SMS-altvar:
!!!NIFC-rismid: 1001099288
!!!URL-scan: http://repozytorium.nifc.pl/skany/pl-wtm-nut--r882m
!!!ONB-nifc:
!!!OMD: Allegro moderato.
**kern	**text	**kern	**text	**kern	**text
*part3	*part3	*part2	*part2	*part1	*part1
*staff3	*staff3	*staff2	*staff2	*staff1	*staff1
*Iempty	*	*Itenor	*	*Ialto	*
*I"Bas.	*	*I"Tenor.	*	*I"Alt.	*
*clefF4	*	*clefG2	*	*clefG2	*
*	*	*ITrd8c12	*	*	*
*k[f#c#g#]	*	*k[f#c#g#]	*	*k[f#c#g#]	*
*A:	*	*A:	*	*A:	*
*M4/4	*	*M4/4	*	*M4/4	*
*met(c)	*	*met(c)	*	*met(c)	*
*	*	*	*	*	*
=1	=1	=1	=1	=1	=1
*	*	*2\right	*	*	*
!	!	!	!	!LO:TX:a:t=N 2.	!
[1A	Wi-	[2c#\	Wi-	[1a	Wi-
.	.	2c#\_	.	.	.
=2	=2	=2	=2	=2	=2
4A\]	-taj	4c#\]	-taj	4a/]	-taj
4r	.	4r	.	4r	.
2r	.	2r	.	2r	.
=3	=3	=3	=3	=3	=3
[1G#	kra-	[1e	kra-	[1b	kra-
=4	=4	=4	=4	=4	=4
4G#\]	-ju	4e\]	-ju	4b\]	-ju
4r	.	4r	.	4r	.
2r	.	2r	.	2r	.
=5	=5	=5	=5	=5	=5
[1F#	Nasz	[1a	nasz	[1a	Nasz
=6	=6	=6	=6	=6	=6
4F#\]	.	4a\]	.	4a/]	.
4r	.	4r	.	4r	.
4r	.	4r	.	4r	.
8A\	zni-	8c#\	zni-	8a/	zni-
8A\	-kły	8c#\	-kły	8a/	-kły
!!LO:LB:g=original
=7	=7	=7	=7	=7	=7
*2\right	*	*	*	*	*
2A\	zno-	2c#\	zno-	2a/	zno-
4A\	-je	4c#\	-je	4a/	-je
8A\	zni-	8c#\	zni-	8a/	zni-
8A\	-kły	8c#\	-kły	8a/	-kły
=8	=8	=8	=8	=8	=8
2c#\	Tro-	2e\	tros-	2a/	tro-
4A\	-ski	4c#\	-ki	4a/	-ski
8A\	o-	8c#\	o-	8a/	O-
8A\	-to	8c#\	-to	8a/	-to
=9	=9	=9	=9	=9	=9
4E\	prze-	4d\	prze-	4g#/	prze-
4E\	-cie	4B\	-cie	4g#/	-cie
4E\	na-	4e\	Na-	4g#/	na-
4E\	-sze	4d\	-sze	4g#/	-sze
!!LO:LB:g=original
=10	=10	=10	=10	=10	=10
2A\	Wio-	2c#\	wio-	2a/	Wio-
4A\	-ski	4c#\	-ski	4a/	-ski
8A\	i-	8e\	i-	8cc#\	i-
8A\	-leż	8e\	-leż	8cc#\	-leż
=11	=11	=11	=11	=11	=11
*	*	*	*	*2\right	*
2A\	szczę-	2e\	Szczę-	2cc#\	Szczę-
4A\	-ścia	4c#\	-ścia	4a/	-ścia
8A\	i	8c#\	i	8a/	i
8A\	u-	8e\	u-	8cc#\	u-
=12	=12	=12	=12	=12	=12
2A\	-cie-	2a\	-cie-	2cc#\	-cie-
4A\	-chy	4e\	-chy	4cc#\	-chy
8A\	wra-	8e\	wra-	8cc#\	wra-
8A\	-cać	8e\	-cać	8cc#\	-cać
!!LO:LB:g=original
=13	=13	=13	=13	=13	=13
4D\	do	4f#\	do	4dd\	do
4D\	Do-	4d\	Do-	4b\	Do-
4E\	-mo-	4B\	-mo-	4g#/	-mo-
4E\	-wej	4G#/	-wej	4e/	-wej
=14	=14	=14	=14	=14	=14
2A\	Strze-	2A/	Strze-	2e/	Strze-
4A\	-chy	4A/	-chy	4e/	-chy
8A\	zni-	8c#\	zni-	8a/	zni-
8A\	-kły	8c#\	-kły	8a/	-kły
=15	=15	=15	=15	=15	=15
2A\	zno-	2c#\	zno-	2a/	zno-
4A\	-je	4c#\	-je	4a/	-je
8A\	zni-	8c#\	zni-	8a/	zni-
8A\	-kły	8c#\	-kły	8a/	-kły
!!LO:PB:g=original
=16	=16	=16	=16	=16	=16
2c#\	tro-	2e\	tro-	2a/	tro-
4A\	-ski	4c#\	-ski	4a/	-ski
8A\	O-	8c#\	o-	8a/	o-
8A\	-to	8c#\	-to	8a/	to
=17	=17	=17	=17	=17	=17
4E\	prze-	4d\	prze-	4g#/	prze-
4E\	-cie	4B\	-cie	4g#/	-cie
4E\	Na-	4e\	na-	4g#/	na-
4E\	-sze	4d\	-sze	4g#/	-sze
=18	=18	=18	=18	=18	=18
2A\	Wio-	2c#\	Wio-	2a/	Wio-
4A\	-ski	4c#\	-ski	4a/	-ski
8A\	i-	8e\	i-	8cc#\	i-
8A\	-leż	8e\	-leż	8cc#\	-leż
!!LO:LB:g=original
=19	=19	=19	=19	=19	=19
2A\	Szczę-	2e\	Szczę-	2cc#\	Szczę-
4A\	-ścia	4c#\	-ścia	4a/	-ścia
8A\	i	8c#\	i	8a/	i
8A\	u-	8e\	u-	8cc#\	u-
=20	=20	=20	=20	=20	=20
2G#\	-cie-	2a\	-cie-	2cc#\	-cie-
4A\	-chy	4e\	-chy	4cc#\	-chy
8A\	wra-	8e\	wra-	8cc#\	wra-
8A\	-cać	8e\	-cać	8cc#\	-cać
=21	=21	=21	=21	=21	=21
4D\	do	4f#\	do	4dd\	do
4D\	Do-	4d\	Do-	4b\	Do-
4E\	-mo-	4B\	-mo-	4g#/	-mo-
4E\	-wej	4G#/	-wej	4e/	-wej
!!LO:LB:g=original
=22	=22	=22	=22	=22	=22
8A\	Strze-	8A\	Strze-	8e/	Strze-
8A\	-chy	8c#\	-chy	8a/	-chy
8A\	Zni-	8c#\	zni-	8a/	Zni-
8A\	-kły	8c#\	-kły	8a/	-kły
8A\	Zno-	8c#\	wno-	8a/	Zno-
8A\	-je	8c#\	-je	8a/	-je
8A\	zni-	8c#\	zni-	8a/	Zni-
8A\	-kły	8c#\	-kły	8a/	-kły
=23	=23	=23	=23	=23	=23
8A\	tro-	8c#\	Tro-	8a/	Tro-
8A\	-ski	8c#\	-ski	8a/	-ski
8A\	O-	8c#\	o-	8a/	o-
8A\	-to	8c#\	-to	8a/	-to
!!LO:LB:g=original
=-	=-	=-	=-	=-	=-
8A\	prze-	8c#\	prze-	8a/	prze-
8A\	-cie	8c#\	-cie	8a/	-cie
8A\	na-	8c#\	na-	8a/	na-
8A\	-sze	8c#\	-sze	8a/	-sze
=24	=24	=24	=24	=24	=24
8E\	Wio-	8d\	Wio-	8g#/	Wio-
8E\	-ski	8d\	-ski	8g#/	-ski
8E\	i-	8d\	i-	8g#/	i-
8E\	-lez	8d\	-leż	8g#/	-leż
8E\	Szczę-	8d\	Szczę-	8g#/	Szczę-
8E\	-ścia	8d\	-ścia	8g#/	-ścia
8E\	i	8d\	i	8g#/	i
8E\	u-	8d\	u-	8g#/	u-
!!LO:PB:g=original
=25	=25	=25	=25	=25	=25
8E\	-cie-	8d\	-cie-	8g#/	-cie-
8E\	-chy	8d\	-chy	8g#/	-chy
8E\	wra-	8d\	wra-	8g#/	wra-
8E\	-cać	8d\	-cać	8g#/	-cać
8E\	do	8d\	do	8g#/	do
8E\	Do-	8d\	Do-	8g#/	Do-
8E\	-mo-	8d\	-mo-	8g#/	-mo-
8E\	-wej	8d\	-wej	8g#/	-wej
=26	=26	=26	=26	=26	=26
8A\	Strze-	8A/	Strze-	8e/	Strze-
8A\	-chy	8c#\	-chy	8a/	-chy
8A\	Zni-	8c#\	zni-	8a/	Zni-
8A\	-kły	8c#\	-kły	8a/	-kły
!!LO:LB:g=original
=-	=-	=-	=-	=-	=-
8A\	Zno-	8c#\	zno-	8a/	zno-
8A\	-je	8c#\	-je	8a/	-je
8A\	zni-	8c#\	zni-	8a/	zni-
8A\	-kły	8c#\	-kły	8a/	-kły
=27	=27	=27	=27	=27	=27
8A\	tro-	8c#\	Tro-	8a/	Tro-
8A\	-ski	8c#\	-ski	8a/	-ski
8A\	o-	8c#\	o-	8a/	o-
8A\	-to	8c#\	-to	8a/	-to
8A\	prze-	8c#\	prze-	8a/	prze-
8A\	-cie	8c#\	-cie	8a/	-cie
8A\	na-	8c#\	na-	8a/	na-
8A\	-sze	8c#\	-sze	8a/	-sze
!!LO:LB:g=original
=28	=28	=28	=28	=28	=28
8E\	Wio-	8d\	Wio-	8g#/	Wio-
8E\	-ski	8d\	-ski	8g#/	-ski
8E\	i-	8d\	i-	8g#/	i-
8E\	-leż	8d\	-leż	8g#/	-leż
8E\	szczę-	8d\	Szczę-	8g#/	Szczę-
8E\	-ścia	8d\	-ścia	8g#/	-ścia
8E\	i	8d\	i	8g#/	i
8E\	u-	8d\	u-	8g#/	u-
=29	=29	=29	=29	=29	=29
8E\	-cie-	8d\	-cie-	8g#/	-cie-
8E\	-chy	8d\	-chy	8g#/	-chy
8E\	wra-	8d\	wra-	8g#/	wra-
8E\	-cać	8d\	-cać	8g#/	-cać
!!LO:LB:g=original
=-	=-	=-	=-	=-	=-
8E\	do	8d\	do	8g#/	do
8E\	Do-	8d\	Do-	8g#/	Do-
8E\	-mo-	8d\	-mo-	8g#/	-mo-
8E\	-wej	8d\	-wej	8g#/	-wej
=30	=30	=30	=30	=30	=30
8A\	Strz-	8c#\	Strz-	8a/	Strz-
8A\	-chy	8c#\	-chy	8a/	-chy
8A\	i-	8f#\	i-	8a/	i-
8A\	-leż	8f#\	-leż	8a/	-leż
2A\	Szczę-	2f#\	Szczę-	2a/	Szczę-
!!LO:PB:g=original
=31	=31	=31	=31	=31	=31
4A\	-scia	4e\	-scia	4a/	-scia
8A\	i	8f#\	i	8a/	i
8A\	u-	8f#\	u-	8a/	u-
2A\	-cie-	2f#\	-cie-	2a/	-cie-
=32	=32	=32	=32	=32	=32
4A\	-chy	4e\	-chy	4a/	-chy
8A\	i-	8f#\	i-	8a/	i-
8A\	-leż	8f#\	-leż	8a/	-leż
2A\	szczę-	2f#\	Szczę-	2a/	szczę-
=33	=33	=33	=33	=33	=33
4A\	-scia	4e\	-scia	4a/	-scia
8A\	i	8f#\	i	8a/	i
8A\	u-	8f#\	u-	8a/	u-
2A\	-cie-	2f#\	-cie-	2a/	-cie-
!!LO:LB:g=original
=34	=34	=34	=34	=34	=34
4A\	-chy	4e\	-chy	4a/	-chy,
4r	.	4r	.	4r	.
4.c#\	wra-	4.e\	wra-	4.ee\	wra-
8c#\	-cać	8e\	-cać	8ee\	-cać
=35	=35	=35	=35	=35	=35
4d\	do	4f#\	do	4ff#\	do
4B\	do-	4d\	do-	4dd\	Do-
4G#\	-mo-	4B\	-mo-	4b\	-mo-
4G#\	-wej	4e\	-wej	4ee\	-wej
=36	=36	=36	=36	=36	=36
8A\	Strze-	8c#\	strze-	8cc#\	strze-
8A\	-chy	8c#\	-chy	8cc#\	-chy
4r	.	4r	.	4r	.
4.A\	wra-	4.e\	wra-	4.a/	wra-
8A\	-cać	8e\	-cać	8a/	-cać
!!LO:LB:g=original
=37	=37	=37	=37	=37	=37
4d\	do	4f#\	do	4a/	do
4d\	Do-	4f#\	Do-	4a/	Do-
4e\	-mo-	4e\	-mo-	4g#/	-mo-
4E\	-wej	4e\	-wej	4g#/	-wej
=38	=38	=38	=38	=38	=38
4A\	Strze-	4c#\	Strze-	4a/	Strze-
4A\	-chy	4c#\	-chy	4a/	-chy
4.c#\	wra-	4.e\	wra-	4.a/	wra-
8c#\	-cać	8e\	-cać	8a/	-cać
=39	=39	=39	=39	=39	=39
4.d\	do	4.f#\	do	4.a/	do
8d\	Do-	8f#\	Do-	8a/	Do-
!!LO:LB:g=original
=-	=-	=-	=-	=-	=-
4.e\	-mo-	4.e\	-mo-	4.a/	-mo-
8E\	-wej	8e\	-wej	8g#/	-wej
=40	=40	=40	=40	=40	=40
8A\	Strze-	8A/	Strze-	8a/	Strze-
8A\	-chy.	8A/	-chy	8a/	-chy
4r	.	4r	.	4r	.
2r	.	2r	.	2r	.
==	==	==	==	==	==
*-	*-	*-	*-	*-	*-
!!!system-decoration: (s1,s2,s3)
!!!ENC: Marcin Jachim
!!!END: 2021-08-06
!!!ENC: Marta Chmielewska
!!!END: 2021-09-08
